X:112
M:2/4
L:1/8
K:G
|:A ^c2 (e|e) g2 b|agfe|f/d/^c/d/ eA|A ^c2 (e|e) g2 b|a/g/f "tr"e2|d4|

